X: 8979
T: Cutting Bracken
R: strathspey
M: 4/4
K: Bminor
[M:6/8]
|:e|AAA a3|gee g3|e2 d B2 A|GAA BGG|
AAA a3|gee g3|e2 d Bee|1 A3 A2:|2 A3 A3||
|:e2 d BAA|GAA BAA|e2 d BAA|B3 d3|
e2 d BAA|GAA BAA|e2 d Bee|1 A3 A3:|2 A3 A2||
|:G|AAA a3|gee deg|GGG g2 e|dBB deB|
AAA a3|gee deg|e2 d Bee|1 A3 A2:|2 A3 A3||
|:e2 d BBB|GAA BBB|GAA BAA|B3 d3|
e2 d BBB|GAA Bdd|e2 d Bee|A3 A3:|

